X:395
T: Adelgunde (119), S. 278
N: T0284
O: Luxemburg
S: Singendes Volk, Esch-Alzette 1937 posth.]
N: Junglinster, J.P. Welter (Lehrer), um 1900
R: Liebeslieder]
M: 4/4
L: 1/8
K: G
B | B2B2B2B2 | BBBBBAA
A | c2c2c2c2 | cBcdcBA2 |
d4edcB | A2z2
cccd | e2dcdBBB | B4z3

@@@ Tune index: 8449
